X: 56
T:The Dungiven
M:4/4
L:1/8
S:Ciaran Kelly, Moneymore, Derry (Accordian)
R:Hornpipe
D:Session tape - Cross Keys, Antrim 1993
Z:Bernie Stocks
K:G
B,2B,C DB,G,2 | CDEG cBAF | GABd g2fg | ecAG FEDC | B,2B,C DB,G,2 | CDEG cBAF |\
GABd g2fg | ecAF G3B :: dBGB dgfg | ecAc e2dc | BGBd g2fe |\
(3fgf (3efe d3e | dBGB dgfg | ecAF GFED | GBdB cBAG | FGAF G4 :|
